logos/blitzjs-icon.svg

<?xml version="1.0" encoding="UTF-8"?>
<svg width="256px" height="394px" viewBox="0 0 256 394" version="1.1" xmlns="http://www.w3.org/2000/svg" xmlns:xlink="http://www.w3.org/1999/xlink" preserveAspectRatio="xMidYMid">
    <title>Blitz</title>
    <g>
        <path d="M65.0616978,196.687365 C89.8205926,196.687365 113.139606,208.323896 128.026679,228.106249 L192.204501,313.394482 C193.417342,315.00617 193.600242,317.170181 192.675105,318.962957 L155.680955,390.63785 C153.906059,394.078536 149.148181,394.481457 146.818249,391.391633 L1.42108547e-14,196.687365 L65.0616978,196.687365 Z M109.181234,2.09080071 L256,196.795792 L190.937786,196.795792 C166.178891,196.795792 142.859651,185.159487 127.972805,165.376003 L63.7949826,80.0891285 C62.5821413,78.477213 62.3992418,76.3134299 63.3243784,74.5208786 L100.318529,2.84428799 C102.093424,-0.594639809 106.851302,-0.9991491 109.181234,2.09080071 Z" fill="#6700EB"></path>
    </g>
</svg>

<svg preserveAspectRatio="xMidYMid" viewBox="0 0 256 394" xmlns="http://www.w3.org/2000/svg">
  <path fill="#6700EB" d="M65.062 196.687a78.803 78.803 0 0 1 62.965 31.42l64.178 85.287a5.254 5.254 0 0 1 .47 5.569l-36.994 71.675c-1.775 3.44-6.533 3.843-8.863.754L0 196.687h65.062Zm44.12-194.596L256 196.796h-65.062a78.8 78.8 0 0 1-62.965-31.42L63.795 80.089a5.254 5.254 0 0 1-.47-5.568l36.994-71.677c1.774-3.439 6.532-3.843 8.862-.753Z"/>
</svg>
